icon-themes/breeze_svg/cmd/32/sectionshrinktop.svg

<svg viewBox="0 0 32 32" xmlns="http://www.w3.org/2000/svg"><path d="m4 10v5h5v-5zm19 0v5h5v-5zm-18 1h3v3h-3zm19 0h3v3h-3z" fill="#1d99f3"/><path d="m10 12v1h3v-1zm5 0v1h2v-1zm4 0v1h3v-1zm-13 4v2h1v-2zm19 0v2h1v-2zm-19 4v2h1v-2zm19 0v2h1v-2zm-21 3v5h5v-5zm19 0v5h5v-5zm-18 1h3v3h-3zm19 0h3v3h-3zm-14 1v1h3v-1zm5 0v1h2v-1zm4 0v1h3v-1z" fill="#4d4d4d"/></svg>

<svg xmlns="http://www.w3.org/2000/svg" viewBox="0 0 32 32">
 <path 
     style="fill:#1d99f3" 
     d="M 4 10 L 4 15 L 9 15 L 9 10 L 4 10 z M 23 10 L 23 15 L 28 15 L 28 10 L 23 10 z M 5 11 L 8 11 L 8 14 L 5 14 L 5 11 z M 24 11 L 27 11 L 27 14 L 24 14 L 24 11 z "
     />
 <path 
     style="fill:#4d4d4d" 
     d="M 10 12 L 10 13 L 13 13 L 13 12 L 10 12 z M 15 12 L 15 13 L 17 13 L 17 12 L 15 12 z M 19 12 L 19 13 L 22 13 L 22 12 L 19 12 z M 6 16 L 6 18 L 7 18 L 7 16 L 6 16 z M 25 16 L 25 18 L 26 18 L 26 16 L 25 16 z M 6 20 L 6 22 L 7 22 L 7 20 L 6 20 z M 25 20 L 25 22 L 26 22 L 26 20 L 25 20 z M 4 23 L 4 28 L 9 28 L 9 23 L 4 23 z M 23 23 L 23 28 L 28 28 L 28 23 L 23 23 z M 5 24 L 8 24 L 8 27 L 5 27 L 5 24 z M 24 24 L 27 24 L 27 27 L 24 27 L 24 24 z M 10 25 L 10 26 L 13 26 L 13 25 L 10 25 z M 15 25 L 15 26 L 17 26 L 17 25 L 15 25 z M 19 25 L 19 26 L 22 26 L 22 25 L 19 25 z "
     />
</svg>
